X: 1
T:Down the Brae
S:Donna Hind's notes
Z:Nigel Gatherer
M:2/4
L:1/8
K:Em
B,B,|E>D EF|G>F GA|B2 e2|d B2 A|G>F GB|AF DE|F2 E2|1D B,2 B:|]2E2|]
ed|B2 e2|e2 de|f2 e2|d B2 B|A>G AB|d>c de|dB AB|d2 BA|B2 e2|e2 de|
f2 e2|d B2 A|G>F GB|AF DE|F2 E2|E2|]
